X: 42525
T: Wheels Of The World, The
R: reel
M: 4/4
K: Dmixolydian
dc|:AD (3DDD FAGF|EC (3CCC EFGB|AD (3DDD FAde|=fedc Addc|
AD (3DDD FAGF|EC (3CCC EFGc|AddB cBAG|1 ECGE D2 dc:|2 ECGE D2 AB||
d3f afdf|eccB cege|d^cdf afdf|eaag eddA|
d3f afdf|eccB cege|abag efge|aege dcAB||
c3e gecA|d2ad bdad|cBcd ed (3Bcd|eaag edAB|
c3e gecA|d2ad bdad|abag efge|aege d2||
~d3f afdf|ecgc acgc|~d3f afdf|ed^ce dcAc|
~d3f afdf|ecgc acgc|eaag efge|fage d4|
~c3e gece|~d2ad bdad|~c3e gecd|eaag egdB|
~c3e gece|~d2ad bdad|eaag efge|aged ^cABc||

